X:482
T:Rainy Day, The
R:reel
H:See also #325
D:Molloy, Peoples, Brady
Z:id:hn-reel-482
M:C|
K:Ador
EAAG ~A3B|cded cBAc|BG~G2 dGGA|(3Bcd gd edBA|
EAAG ~A3B|c2AB cdef|(3gfe af gedB|1 GBdB BAAG:|2 GBdB BAA2||
|:eaag eaag|edef g2bg|dg~g2 ag~g2|bgag gedg|
eaag eaag|edef geaf|gedB GA (3Bcd|1 eBdB BAA2:|2 eBdB BAAG||
